X: 151
T: The Soldier and the Sailor
N:"Moderate"
B:O'Neill's 151
Z:Transcribed by henrik.norbeck@mailbox.swipnet.se
M:3/4
L:1/8
K:A
(E>G)|A2 A2 (BA)|(G2 A2 B2)|c2 d2 c2|B4 (EG)|
A2 A2 (BA)|G2 A2 (Bd)|e2 d2 G2|A4||
(cd)|e2 e2 c2|d2 c2 B2|A2 A3 c|B4 (cd)|
(ec) (dB) (cA)|BG E2 EG|A2 c2 B2|A4||


